packages/core/src/svgs/tokens/branded/RIDE.svg

<svg width="24" height="24" viewBox="0 0 24 24" fill="none" xmlns="http://www.w3.org/2000/svg">
<path d="M2.85507 6.00198C4.97247 3.57285 9.83074 4.76683 11.7952 5.62554C11.6539 5.09031 12.2481 3.97281 15.7594 3.77871C20.1412 3.54344 22.7233 7.77235 21.8176 10.4544C20.9234 13.1306 19.7178 12.2365 18.9943 14.8657C18.2768 17.483 16.9769 20.5531 14.4654 21.3943C12.6009 22.0177 9.76596 22.7529 5.80766 20.2533C2.63156 18.2534 3.46675 14.8598 4.29018 13.6658C3.0668 12.16 0.743559 8.4311 2.85507 6.00198Z" fill="#F11E99"/>
<path d="M2.81426 18.2359C1.97318 16.0713 3.68473 14.2951 4.64933 13.6717L9.47812 12.1307L12.4661 20.1061C10.0017 20.3179 9.99578 20.6414 8.35482 20.9532C6.71967 21.2589 3.86707 20.9532 2.81426 18.2418V18.2359Z" fill="url(#paint0_linear_364_10475)"/>
<path d="M20.4824 17.083C18.912 21.0237 14.7596 20.6709 11.807 20.6709C9.71319 20.6709 7.06051 21.359 5.50188 19.9592C4.78466 19.3479 4.23421 18.5648 3.90208 17.6829C2.74339 14.2893 5.25485 13.5894 5.5607 11.6837C5.86066 9.76618 -0.526814 1.61427 10.0249 2.01422C21.2588 2.44357 22.047 13.1365 20.4824 17.083Z" fill="#873DEE"/>
<path d="M21.0415 12.0249C20.824 12.2894 20.6063 12.4835 20.3887 12.6718C19.687 13.2221 19.2033 14.0037 19.0241 14.8774C18.4713 16.8889 17.5714 19.171 16.0422 20.5003C14.8658 20.7061 13.6306 20.6943 12.5132 20.6825H11.8309C11.2604 20.6825 10.6428 20.7473 10.0193 20.812C8.90181 20.9296 7.74905 21.059 6.78447 20.812C6.47273 20.6532 6.15512 20.4708 5.83164 20.2649C5.54764 20.0871 5.27997 19.8844 5.03173 19.6592C4.40627 18.9209 3.93078 18.0679 3.6319 17.1477C3.48954 16.2787 3.57257 15.3876 3.87305 14.5598C4.08478 14.1774 4.34946 13.8364 4.61414 13.5011C5.05527 12.9247 5.47874 12.3718 5.58461 11.6955C5.65519 11.2367 5.34934 10.4192 4.97292 9.44861C4.47298 8.1429 3.86717 6.55485 3.94951 5.17854C6.33746 3.92575 10.137 4.90799 11.8191 5.64319C11.678 5.10209 12.272 3.98457 15.7834 3.79636C15.9598 3.7846 16.1304 3.77871 16.301 3.7846C19.4183 5.75495 20.7416 9.0428 21.0415 12.0189V12.0249Z" fill="url(#paint1_linear_364_10475)"/>
<path d="M11.1358 5.62538C7.62446 5.62538 4.78951 8.44857 4.78951 11.9188C4.78951 15.3772 7.62446 18.2003 11.1358 18.2003C14.6413 18.2003 17.4763 15.3772 17.4763 11.9129C17.4763 8.44857 14.6472 5.62538 11.1358 5.62538ZM2.86621 11.9188C2.86621 7.37222 6.57165 3.70208 11.1358 3.70208C15.6941 3.70208 19.3995 7.37222 19.3995 11.9129C19.3995 16.4594 15.6941 20.1237 11.1358 20.1237C10.0537 20.1275 8.98146 19.9183 7.98018 19.5076C6.97896 19.0972 6.0684 18.4934 5.30049 17.731C4.53259 16.9685 3.92237 16.0623 3.5047 15.064C3.08703 14.0657 2.87007 12.995 2.86621 11.9129V11.9188Z" fill="white"/>
<defs>
<linearGradient id="paint0_linear_364_10475" x1="3.10205" y1="14.0952" x2="39.8697" y2="3.71297" gradientUnits="userSpaceOnUse">
<stop stop-color="#4BDAF7"/>
<stop offset="1" stop-color="#6A63E3"/>
</linearGradient>
<linearGradient id="paint1_linear_364_10475" x1="6.10762" y1="18.1125" x2="19.9354" y2="9.35474" gradientUnits="userSpaceOnUse">
<stop stop-color="#2424E5"/>
<stop offset="1" stop-color="#781390"/>
</linearGradient>
</defs>
</svg>

<svg xmlns="http://www.w3.org/2000/svg" width="24" height="24" fill="none" viewBox="0 0 24 24">
    <path fill="#F11E99" d="M2.855 6.002c2.117-2.43 6.976-1.235 8.94-.376-.141-.536.453-1.653 3.964-1.847 4.382-.236 6.964 3.993 6.059 6.675-.895 2.677-2.1 1.782-2.824 4.412-.717 2.617-2.017 5.687-4.529 6.528-1.864.624-4.699 1.359-8.657-1.14-3.176-2-2.341-5.394-1.518-6.588C3.067 12.16.744 8.43 2.855 6.002"/>
    <path fill="url(#RIDE__a)" d="M2.814 18.236c-.84-2.165.87-3.94 1.835-4.564l4.83-1.541 2.987 7.975c-2.464.212-2.47.535-4.111.847-1.635.306-4.488 0-5.54-2.711z"/>
    <path fill="#873DEE" d="M20.482 17.083c-1.57 3.94-5.722 3.588-8.675 3.588-2.094 0-4.746.688-6.305-.712a5.6 5.6 0 0 1-1.6-2.276c-1.159-3.394 1.353-4.094 1.659-6 .3-1.917-6.088-10.069 4.464-9.669 11.234.43 12.022 11.123 10.457 15.069"/>
    <path fill="url(#RIDE__b)" d="M21.042 12.025a5 5 0 0 1-.653.647 3.76 3.76 0 0 0-1.365 2.205c-.553 2.012-1.453 4.294-2.982 5.623-1.176.206-2.411.194-3.529.183h-.682c-.57 0-1.188.064-1.812.129-1.117.118-2.27.247-3.235 0q-.467-.238-.952-.547a5.7 5.7 0 0 1-.8-.606 7.4 7.4 0 0 1-1.4-2.511 5.15 5.15 0 0 1 .241-2.588c.212-.383.476-.724.741-1.059.441-.576.865-1.13.97-1.806.071-.458-.235-1.276-.611-2.246-.5-1.306-1.106-2.894-1.023-4.27 2.387-1.253 6.187-.271 7.87.464-.142-.54.452-1.658 3.963-1.847q.264-.018.518-.011c3.117 1.97 4.44 5.258 4.74 8.234z"/>
    <path fill="#fff" d="M11.136 5.625c-3.512 0-6.346 2.824-6.346 6.294 0 3.458 2.834 6.281 6.346 6.281 3.505 0 6.34-2.823 6.34-6.287s-2.829-6.288-6.34-6.288m-8.27 6.294c0-4.547 3.706-8.217 8.27-8.217 4.558 0 8.264 3.67 8.264 8.21 0 4.547-3.706 8.212-8.264 8.212a8.24 8.24 0 0 1-8.27-8.211z"/>
    <defs>
        <linearGradient id="RIDE__a" x1="3.102" x2="39.87" y1="14.095" y2="3.713" gradientUnits="userSpaceOnUse">
            <stop stop-color="#4BDAF7"/>
            <stop offset="1" stop-color="#6A63E3"/>
        </linearGradient>
        <linearGradient id="RIDE__b" x1="6.108" x2="19.935" y1="18.113" y2="9.355" gradientUnits="userSpaceOnUse">
            <stop stop-color="#2424E5"/>
            <stop offset="1" stop-color="#781390"/>
        </linearGradient>
    </defs>
</svg>
